public/home/dao-it/icons/safe.svg

<svg width="48" height="40" viewBox="0 0 48 40" fill="none" xmlns="http://www.w3.org/2000/svg">
<g clip-path="url(#clip0_2607_119)">
<mask id="mask0_2607_119" style="mask-type:luminance" maskUnits="userSpaceOnUse" x="3" y="0" width="41" height="40">
<path d="M43.518 0V39.893H3.625V0H43.518Z" fill="white"/>
</mask>
<g mask="url(#mask0_2607_119)">
<path d="M23.625 0C27.5806 0 31.4474 1.17298 34.7364 3.37061C38.0254 5.56824 40.5888 8.69181 42.1026 12.3463C43.6163 16.0009 44.0124 20.0222 43.2407 23.9018C42.469 27.7814 40.5642 31.3451 37.7671 34.1421C34.9701 36.9392 31.4064 38.844 27.5268 39.6157C23.6472 40.3874 19.6259 39.9913 15.9713 38.4776C12.3168 36.9638 9.19324 34.4004 6.99561 31.1114C4.79798 27.8224 3.625 23.9556 3.625 20C3.625 14.6957 5.73214 9.60859 9.48286 5.85786C13.2336 2.10714 18.3207 0 23.625 0Z" fill="#DFE225"/>
</g>
<path d="M34.6538 20.3956H32.0445C31.2652 20.3956 30.6338 21.0466 30.6338 21.8499V25.7537C30.6338 26.557 30.0023 27.2079 29.223 27.2079H18.8423C18.063 27.2079 17.4316 27.8588 17.4316 28.6621V31.3518C17.4316 32.1551 18.063 32.806 18.8423 32.806H29.8238C30.6032 32.806 31.2256 32.1551 31.2256 31.3518V29.1939C31.2256 28.3906 31.8571 27.8207 32.6364 27.8207H34.6533C35.4326 27.8207 36.0641 27.1698 36.0641 26.3665V21.833C36.0641 21.0297 35.4331 20.3956 34.6538 20.3956Z" fill="#242424"/>
<path d="M17.4308 15.0523C17.4308 14.249 18.0623 13.5981 18.8416 13.5981H29.216C29.9953 13.5981 30.6267 12.9472 30.6267 12.1439V9.45421C30.6267 8.65091 29.9953 8 29.216 8H18.2402C17.4609 8 16.8295 8.65091 16.8295 9.45421V11.5267C16.8295 12.33 16.198 12.9809 15.4187 12.9809H13.4108C12.6315 12.9809 12 13.6318 12 14.4351V18.9736C12 19.7769 12.6341 20.3951 13.4134 20.3951H16.0227C16.802 20.3951 17.4335 19.7442 17.4335 18.9409L17.4308 15.0523Z" fill="#242424"/>
<path d="M22.8036 17.5684H25.31C26.1267 17.5684 26.7894 18.2519 26.7894 19.0933V21.6769C26.7894 22.5188 26.1262 23.2018 25.31 23.2018H22.8036C21.9868 23.2018 21.3242 22.5183 21.3242 21.6769V19.0933C21.3242 18.2514 21.9874 17.5684 22.8036 17.5684Z" fill="#242424"/>
</g>
<defs>
<clipPath id="clip0_2607_119">
<rect width="47.25" height="40" fill="white"/>
</clipPath>
</defs>
</svg>

<svg viewBox="0 0 48 40" fill="none" xmlns="http://www.w3.org/2000/svg"><g clip-path="url(#a)"><mask id="b" style="mask-type:luminance" maskUnits="userSpaceOnUse" x="3" y="0" width="41" height="40"><path d="M43.518 0v39.893H3.625V0z" fill="#fff"/></mask><g mask="url(#b)"><path d="M23.625 0a20 20 0 1 1 0 40 20 20 0 0 1 0-40" fill="#DFE225"/></g><path d="M34.654 20.396h-2.61c-.779 0-1.41.65-1.41 1.454v3.904c0 .803-.632 1.454-1.411 1.454h-10.38c-.78 0-1.411.65-1.411 1.454v2.69c0 .803.631 1.454 1.41 1.454h10.982c.78 0 1.402-.65 1.402-1.454v-2.158c0-.803.631-1.373 1.41-1.373h2.017c.78 0 1.411-.651 1.411-1.455v-4.533c0-.803-.63-1.437-1.41-1.437M17.43 15.052c0-.803.632-1.454 1.412-1.454h10.374c.78 0 1.41-.65 1.41-1.454v-2.69c0-.803-.63-1.454-1.41-1.454H18.24c-.78 0-1.41.65-1.41 1.454v2.073c0 .803-.632 1.454-1.411 1.454H13.41c-.78 0-1.411.65-1.411 1.454v4.539c0 .803.634 1.421 1.413 1.421h2.61c.779 0 1.41-.65 1.41-1.454zm5.374 2.516h2.506c.817 0 1.48.684 1.48 1.525v2.584c0 .842-.664 1.525-1.48 1.525h-2.506c-.817 0-1.48-.684-1.48-1.525v-2.584c0-.842.663-1.525 1.48-1.525" fill="#242424"/></g><defs><clipPath id="a"><path fill="#fff" d="M0 0h47.25v40H0z"/></clipPath></defs></svg>
